src/assets/outline/Velas.svg

<svg width="24" height="24" viewBox="0 0 24 24"  xmlns="http://www.w3.org/2000/svg">
<path d="M22 3.7793H2C1.59 3.7793 1.25 3.4393 1.25 3.0293C1.25 2.6193 1.59 2.2793 2 2.2793H22C22.41 2.2793 22.75 2.6193 22.75 3.0293C22.75 3.4393 22.41 3.7793 22 3.7793Z" />
<path d="M12.0001 21.7194C11.3601 21.7194 10.7801 21.3994 10.4301 20.8694L2.47015 8.47938C2.10015 7.90938 2.08014 7.17938 2.40014 6.57938C2.73014 5.97938 3.35015 5.60938 4.03015 5.60938H19.9601C20.6401 5.60938 21.2701 5.97938 21.5901 6.57938C21.9201 7.17938 21.8901 7.90938 21.5201 8.47938L13.5601 20.8694C13.2201 21.3994 12.6401 21.7194 12.0001 21.7194ZM4.04016 7.10938C3.85016 7.10938 3.75015 7.23938 3.72015 7.29938C3.69015 7.35938 3.63016 7.50937 3.73016 7.66937L11.6901 20.0594C11.7801 20.1994 11.9201 20.2294 11.9901 20.2294C12.0601 20.2294 12.2002 20.2094 12.2902 20.0594L20.2501 7.66937C20.3501 7.50937 20.2902 7.35938 20.2602 7.29938C20.2302 7.23938 20.1402 7.10938 19.9401 7.10938H4.04016Z" />
</svg>

<?xml version="1.0" encoding="UTF-8"?>
<svg width="24" height="24" viewBox="0 0 24 24" xmlns="http://www.w3.org/2000/svg">
 <path d="m22 3.7793h-20c-0.41 0-0.75-0.34-0.75-0.75s0.34-0.75 0.75-0.75h20c0.41 0 0.75 0.34 0.75 0.75s-0.34 0.75-0.75 0.75z"/>
 <path d="m12 21.719c-0.64 0-1.22-0.32-1.57-0.85l-7.96-12.39c-0.37-0.57-0.39001-1.3-0.07001-1.9 0.33-0.6 0.95001-0.97 1.63-0.97h15.93c0.68 0 1.31 0.37 1.63 0.97 0.33 0.6 0.3 1.33-0.07 1.9l-7.96 12.39c-0.34 0.53-0.92 0.85-1.56 0.85zm-7.9599-14.61c-0.19 0-0.29001 0.13-0.32001 0.19s-0.08999 0.20999 0.01001 0.36999l7.9599 12.39c0.09 0.14 0.23 0.17 0.3 0.17s0.2101-0.02 0.3001-0.17l7.9599-12.39c0.1-0.16 0.0401-0.30999 0.0101-0.36999s-0.12-0.19-0.3201-0.19h-15.9z"/>
</svg>
